<?xml version="1.0" encoding="UTF-8"?>
<map version="1.10" tiledversion="1.12.1" orientation="orthogonal" renderorder="left-up" width="30" height="20" tilewidth="32" tileheight="32" infinite="0" nextlayerid="6" nextobjectid="37">
 <tileset firstgid="1" name="rogues" tilewidth="32" tileheight="32" tilecount="49" columns="7">
  <image source="../tilesets/rogues.png" width="224" height="224"/>
 </tileset>
 <tileset firstgid="50" name="TX Tileset Grass" tilewidth="32" tileheight="32" tilecount="64" columns="8">
  <image source="../tilesets/TX Tileset Grass.png" width="256" height="256"/>
 </tileset>
 <tileset firstgid="114" name="TX Plant with Shadow" tilewidth="32" tileheight="32" tilecount="256" columns="16">
  <image source="../tilesets/TX Plant with Shadow.png" width="512" height="512"/>
 </tileset>
 <tileset firstgid="370" name="TX Props with Shadow" tilewidth="32" tileheight="32" tilecount="256" columns="16">
  <image source="../tilesets/TX Props with Shadow.png" width="512" height="512"/>
 </tileset>
 <layer id="1" name="floor" width="30" height="20">
  <data encoding="csv">
52,53,54,55,50,51,52,53,54,55,56,50,51,98,99,50,51,52,50,51,52,53,50,51,50,51,50,51,52,53,
60,61,62,63,50,51,52,53,54,55,56,58,59,106,107,58,59,60,58,59,60,61,58,59,58,59,58,59,60,61,
68,69,70,71,58,59,60,61,62,63,64,50,51,98,99,66,67,68,66,67,68,69,66,67,66,67,66,67,68,69,
58,53,53,53,66,67,68,69,70,71,72,58,59,106,107,74,75,76,74,75,76,77,60,61,62,63,50,51,52,53,
66,61,61,61,66,67,68,69,70,71,72,66,67,98,99,74,75,76,77,68,69,52,53,69,70,50,51,59,60,61,
74,69,69,69,60,61,50,51,52,53,54,55,56,106,107,50,51,50,51,76,77,60,61,50,51,58,59,67,68,69,
58,77,77,70,68,69,58,59,60,61,62,63,64,98,99,58,59,58,59,66,67,68,50,51,59,66,67,75,76,77,
66,70,60,78,53,58,66,67,68,69,70,71,72,106,107,66,67,66,67,74,75,76,58,59,67,61,62,63,52,53,
58,78,68,60,61,66,66,67,68,69,70,71,72,98,99,60,61,62,63,50,51,52,66,67,68,69,70,71,60,61,
66,52,53,68,69,74,50,51,52,53,54,55,56,106,107,68,69,70,71,58,59,60,61,50,51,52,53,79,68,69,
74,60,61,62,50,51,58,59,60,61,62,63,64,98,99,78,105,50,51,66,67,50,50,51,52,53,61,52,53,63,
53,68,69,70,58,59,66,67,68,69,70,71,72,106,107,78,78,58,59,74,75,58,50,51,50,50,50,51,52,53,
61,50,51,52,53,54,50,51,52,53,54,55,56,98,99,78,53,66,67,68,69,66,58,59,58,58,58,59,60,61,
69,58,59,60,61,62,58,59,60,61,62,63,64,106,107,102,61,74,75,76,77,74,66,67,66,66,66,67,68,69,
77,66,67,68,69,70,66,67,68,69,70,71,72,83,83,83,83,110,86,87,88,89,74,75,74,74,74,75,76,77,
50,51,52,53,54,55,58,59,60,61,62,63,64,91,91,91,91,70,94,95,96,97,102,50,51,52,53,55,52,53,
58,59,60,61,62,63,66,67,68,69,70,71,72,60,61,62,63,50,51,51,50,51,83,50,51,52,53,63,52,53,
66,67,68,69,70,71,72,102,69,50,51,52,53,54,55,56,50,51,59,59,50,51,91,58,59,60,61,52,52,53,
50,51,52,53,50,51,52,53,77,58,59,60,61,62,63,64,58,59,67,67,58,59,99,66,67,68,69,60,60,61,
58,59,60,61,58,59,60,61,110,66,67,68,69,70,71,72,66,67,66,67,66,67,107,74,75,76,77,68,68,69
</data>
 </layer>
 <layer id="2" name="props" width="30" height="20">
  <data encoding="csv">
375,375,375,375,375,375,375,375,375,375,375,375,615,0,0,615,375,375,375,375,375,375,375,375,375,375,375,375,375,375,
391,391,391,391,391,391,391,391,391,391,391,391,430,0,0,382,391,391,391,391,391,391,391,391,391,391,391,391,391,391,
0,220,221,222,0,135,136,137,0,0,0,0,446,0,0,398,0,236,237,238,0,220,221,222,594,595,415,416,417,0,
0,236,237,238,0,151,152,153,0,0,0,0,430,0,0,382,114,115,116,117,118,236,237,238,0,204,205,206,578,579,
0,0,204,205,206,167,168,169,0,0,0,0,446,0,0,398,130,131,132,133,134,0,119,120,121,220,221,222,594,595,
0,0,220,221,222,183,184,185,0,0,0,0,0,0,0,0,146,147,148,149,150,0,135,136,137,236,237,238,116,117,
0,383,384,385,238,0,0,0,0,0,0,0,0,0,0,10,162,163,164,165,615,0,151,152,153,0,130,131,132,133,
0,399,400,401,0,0,204,205,206,0,0,0,0,0,0,19,178,179,180,181,182,0,167,168,169,0,146,147,148,149,
0,415,416,417,0,0,220,221,222,0,0,0,0,114,115,116,117,118,0,0,0,0,183,184,185,0,162,163,164,165,
0,0,119,120,121,0,236,237,238,0,0,0,0,130,131,132,133,134,0,204,205,206,615,0,123,124,178,179,180,181,
0,0,135,136,137,0,0,0,119,120,121,0,0,146,147,148,149,150,0,220,221,222,0,0,139,140,141,0,615,0,
0,0,151,152,153,0,0,0,135,136,137,0,0,162,163,164,165,166,0,236,237,238,0,0,155,156,157,0,0,0,
0,0,167,168,169,0,0,0,151,152,153,0,0,178,179,180,181,182,0,0,0,0,0,0,171,172,173,0,0,0,
0,0,183,184,185,0,0,0,167,168,169,0,0,0,0,0,0,0,0,0,0,485,0,453,187,188,189,0,0,0,
0,0,0,119,120,121,0,213,183,184,185,0,0,0,0,0,0,0,0,0,0,0,0,114,115,116,117,118,0,0,
0,523,0,135,136,137,0,213,0,0,0,0,0,0,0,0,0,0,0,0,0,0,0,130,131,132,133,134,0,0,
0,539,0,151,152,153,0,0,0,0,0,0,0,0,0,0,0,0,0,0,0,0,0,146,147,148,149,150,0,0,
0,0,0,167,168,169,0,0,0,0,0,213,0,0,0,0,0,211,0,0,0,0,0,162,163,164,165,166,0,0,
0,0,0,183,184,185,0,0,0,523,0,0,0,0,0,0,211,0,211,0,0,0,0,178,179,180,181,523,0,0,
0,0,0,0,0,0,0,0,0,539,0,0,0,0,0,0,0,211,0,0,0,0,0,0,0,0,0,539,0,0
</data>
 </layer>
 <objectgroup id="4" name="gameplay">
  <object id="1" name="player_spawn" type="PLAYER_SPAWN" x="703.207" y="585.828" width="33.0795" height="35.2137"/>
  <object id="2" name="transiionToCity" type="MAP_TRANSITION" x="414.028" y="-1.06708" width="67.2261" height="12.805">
   <properties>
    <property name="targetMap" value="cityCenter"/>
    <property name="targetSpawn" value="entranceFromForest"/>
   </properties>
  </object>
  <object id="3" name="entranceFromCity" type="PLAYER_SPAWN" x="417.229" y="27.7441" width="62.9578" height="36.2808"/>
  <object id="4" type="NPC" x="476.985" y="187.806" width="41.6162" height="71.4945">
   <properties>
    <property name="dialogue" value="Oh hello, Traveler! | Hello guys, what are you doing here? | Nothing really important... | You know, we wanted to ask you to go to the City of the Forgotted Sanctuary. You know, the most beautiful city in this whole universe! | Hm... I'm new here. but I'll take a look. Thank you for your advice. | Yes, take a look traveler... | We got him, finally! I can't wait to see what's he gonna do to this bastard! | *what a silly knights...*"/>
    <property name="name" value="The bunch of silly knights"/>
   </properties>
  </object>
 </objectgroup>
 <objectgroup id="5" name="collision">
  <object id="5" type="WALL" x="2.13416" y="17.0733" width="380.948" height="46.9516"/>
  <object id="6" type="WALL" x="60.8237" y="62.9578" width="37.3479" height="33.0795"/>
  <object id="7" type="WALL" x="191.008" y="131.251" width="33.0795" height="58.6895"/>
  <object id="8" type="WALL" x="96.0373" y="163.263" width="26.677" height="24.5429"/>
  <object id="9" type="WALL" x="66.1591" y="215.55" width="26.677" height="65.092"/>
  <object id="10" type="WALL" x="226.221" y="255.033" width="28.8112" height="29.8783"/>
  <object id="11" type="WALL" x="98.1715" y="388.418" width="25.61" height="56.5553"/>
  <object id="12" type="WALL" x="288.112" y="408.692" width="29.8783" height="68.2932"/>
  <object id="13" type="WALL" x="226.221" y="450.308" width="23.4758" height="59.7566"/>
  <object id="14" type="WALL" x="356.405" y="549.547" width="19.2075" height="21.3416"/>
  <object id="15" type="WALL" x="289.179" y="594.364" width="28.8112" height="40.5491"/>
  <object id="16" type="WALL" x="129.117" y="561.285" width="25.61" height="41.6162"/>
  <object id="17" type="WALL" x="35.2137" y="508.998" width="25.61" height="33.0795"/>
  <object id="18" type="WALL" x="868.604" y="600.767" width="22.4087" height="30.9454"/>
  <object id="19" type="WALL" x="801.378" y="568.755" width="24.5429" height="36.2808"/>
  <object id="20" type="WALL" x="679.731" y="426.833" width="13.8721" height="20.2746"/>
  <object id="21" type="WALL" x="743.756" y="430.034" width="14.9391" height="18.1404"/>
  <object id="22" type="WALL" x="803.512" y="401.223" width="19.2075" height="42.6833"/>
  <object id="23" type="WALL" x="484.455" y="370.277" width="22.4087" height="42.6833"/>
  <object id="24" type="WALL" x="576.224" y="223.02" width="28.8112" height="29.8783"/>
  <object id="25" type="WALL" x="639.182" y="197.41" width="28.8112" height="23.4758"/>
  <object id="26" type="WALL" x="707.475" y="290.246" width="26.677" height="25.61"/>
  <object id="27" type="WALL" x="897.416" y="324.393" width="25.61" height="26.677"/>
  <object id="28" type="WALL" x="642.383" y="325.46" width="27.7441" height="25.61"/>
  <object id="29" type="WALL" x="739.488" y="240.093" width="22.4087" height="43.7503"/>
  <object id="30" type="WALL" x="900.617" y="274.24" width="24.5429" height="45.8845"/>
  <object id="31" type="WALL" x="830.19" y="126.983" width="32.0124" height="29.8783"/>
  <object id="32" type="WALL" x="512.199" y="16.0062" width="446.04" height="43.7503"/>
  <object id="33" type="WALL" x="703.207" y="69.3603" width="29.8783" height="25.61"/>
  <object id="34" type="WALL" x="901.684" y="107.775" width="46.9516" height="46.9516"/>
  <object id="35" type="WALL" x="772.567" y="64.0249" width="54.4212" height="21.3416"/>
  <object id="36" type="WALL" x="860.068" y="64.0249" width="38.4149" height="26.677"/>
 </objectgroup>
</map>
