<?xml version="1.0" encoding="UTF-8"?>
<map version="1.10" tiledversion="1.12.1" orientation="orthogonal" renderorder="left-up" width="30" height="20" tilewidth="32" tileheight="32" infinite="0" nextlayerid="6" nextobjectid="15">
 <tileset firstgid="1" name="TX Shadow" tilewidth="32" tileheight="32" tilecount="256" columns="16">
  <image source="TX Shadow.png" width="512" height="512"/>
 </tileset>
 <tileset firstgid="257" name="TX Struct" tilewidth="32" tileheight="32" tilecount="256" columns="16">
  <image source="TX Struct.png" width="512" height="512"/>
 </tileset>
 <tileset firstgid="513" name="TX Tileset Grass" tilewidth="32" tileheight="32" tilecount="64" columns="8">
  <image source="TX Tileset Grass.png" width="256" height="256"/>
 </tileset>
 <tileset firstgid="577" name="TX Tileset Stone Ground" tilewidth="32" tileheight="32" tilecount="64" columns="8">
  <image source="TX Tileset Stone Ground.png" width="256" height="256"/>
 </tileset>
 <tileset firstgid="641" name="TX Tileset Wall" tilewidth="32" tileheight="32" tilecount="256" columns="16">
  <image source="TX Tileset Wall.png" width="512" height="512"/>
 </tileset>
 <tileset firstgid="897" name="TX Plant" tilewidth="32" tileheight="32" tilecount="256" columns="16">
  <image source="TX Plant.png" width="512" height="512"/>
 </tileset>
 <tileset firstgid="1153" name="TX Player" tilewidth="32" tileheight="32" tilecount="16" columns="4">
  <image source="TX Player.png" width="128" height="128"/>
 </tileset>
 <tileset firstgid="1169" name="TX Props" tilewidth="32" tileheight="32" tilecount="256" columns="16">
  <image source="TX Props.png" width="512" height="512"/>
 </tileset>
 <tileset firstgid="1425" name="TX Shadow Plant" tilewidth="32" tileheight="32" tilecount="256" columns="16">
  <image source="TX Shadow Plant.png" width="512" height="512"/>
 </tileset>
 <layer id="1" name="background" width="30" height="20">
  <data encoding="csv">
577,578,579,577,578,579,577,578,579,577,578,579,577,578,579,577,578,579,577,578,579,577,578,577,578,579,577,577,578,579,
585,586,587,585,586,587,585,586,587,585,586,587,585,586,587,585,586,587,585,586,587,585,586,585,586,587,585,585,586,587,
593,594,595,593,594,595,593,594,595,593,594,595,580,580,580,593,594,595,593,594,595,593,594,593,594,595,593,593,594,595,
582,583,584,580,580,580,580,580,580,580,580,580,580,580,580,580,580,577,577,577,577,577,577,577,577,577,577,577,578,579,
590,591,592,588,588,588,588,588,588,580,588,588,588,588,588,588,580,585,585,585,585,585,585,585,585,585,585,585,586,587,
598,599,600,596,596,596,596,596,580,580,596,596,596,596,596,596,580,593,593,593,593,593,593,593,593,593,593,593,594,595,
580,580,580,582,583,584,596,596,588,580,580,580,580,580,596,596,588,596,596,596,580,580,580,580,629,630,630,638,638,630,
588,588,588,590,591,592,596,596,596,588,588,588,588,580,596,596,596,596,588,580,580,588,577,578,579,579,579,579,579,638,
596,596,596,598,599,600,596,596,596,596,596,596,596,588,596,588,588,580,580,580,588,577,578,579,579,587,587,587,587,638,
580,580,580,580,580,580,582,583,584,580,580,596,596,596,596,596,580,580,588,629,629,585,586,587,587,595,595,595,595,638,
580,588,588,580,580,588,590,591,592,588,588,588,596,596,580,580,588,588,596,637,637,593,594,595,595,630,590,591,637,638,
580,580,580,580,580,596,580,599,600,596,596,596,580,580,580,588,596,596,577,578,579,579,638,638,638,638,598,629,637,638,
588,580,580,588,588,596,580,580,580,582,580,580,580,588,617,618,619,0,585,586,587,587,580,580,588,629,577,577,578,579,
580,580,588,596,596,596,588,588,580,580,580,580,580,580,625,626,627,580,593,594,595,595,588,588,596,629,585,577,578,579,
580,580,580,596,596,596,596,596,588,588,588,588,588,588,633,634,635,588,588,588,596,629,630,630,630,637,593,585,586,587,
580,580,588,596,596,596,596,596,596,596,596,596,596,596,596,596,596,596,596,596,629,629,629,629,629,629,630,593,594,595,
588,588,596,596,596,596,596,588,588,577,578,579,579,579,592,629,629,629,629,629,637,637,637,637,637,637,629,630,637,638,
580,596,596,580,596,596,596,596,596,585,586,587,587,587,600,637,637,637,637,629,629,629,629,629,637,638,629,577,578,579,
588,588,596,588,588,588,588,588,596,593,594,595,595,595,629,630,590,591,592,637,637,637,637,629,637,637,629,585,586,587,
596,596,596,596,596,596,596,596,596,596,596,596,637,638,637,638,598,599,600,637,638,638,638,637,637,638,637,593,594,595
</data>
 </layer>
 <layer id="3" name="shadowLayer" width="30" height="20">
  <data encoding="csv">
0,0,0,0,0,0,0,0,0,0,0,0,0,0,0,0,0,0,0,0,0,1224,50,1224,0,0,0,0,0,0,
0,0,0,0,0,0,0,0,0,0,0,0,0,0,0,0,0,0,0,0,0,1240,66,1240,0,0,0,0,0,0,
0,0,0,0,0,0,0,0,0,0,0,0,0,0,0,0,0,0,0,0,0,0,0,0,0,0,0,0,0,0,
0,0,0,0,0,0,0,0,0,0,0,0,0,0,0,0,0,0,0,0,0,0,0,0,0,0,0,0,0,0,
0,0,0,0,0,0,0,0,0,0,0,0,0,0,0,0,0,0,0,0,0,0,0,0,0,0,0,0,0,0,
0,0,0,0,0,0,0,0,0,0,0,0,0,0,0,0,0,0,0,0,0,0,0,0,0,0,0,0,0,0,
0,0,0,0,0,0,0,0,0,0,0,0,0,0,0,0,0,0,0,0,0,0,0,0,0,0,0,0,0,0,
0,0,0,140,141,142,0,0,0,0,0,0,0,0,0,0,0,0,0,0,0,0,0,0,0,0,0,0,0,0,
0,0,0,156,157,158,0,0,0,0,0,0,0,0,0,0,0,0,0,0,0,0,0,0,0,0,0,0,0,0,
0,0,0,172,173,174,0,0,0,0,0,0,0,0,0,0,0,0,0,0,0,6,7,0,0,0,0,0,0,0,
0,0,0,0,0,0,0,0,0,0,0,0,0,0,0,0,0,0,0,0,0,22,23,0,0,0,0,0,0,0,
0,0,0,0,0,0,0,0,0,0,0,0,0,0,0,0,107,108,109,0,0,0,0,0,0,0,0,0,0,0,
0,0,0,0,0,0,0,0,0,6,7,0,0,0,0,0,123,124,125,0,0,0,0,0,0,0,0,0,0,0,
0,0,0,0,0,0,0,0,0,22,23,0,0,0,0,107,108,109,0,0,0,0,0,0,0,0,0,0,0,0,
0,0,0,0,0,0,0,0,0,0,0,0,0,0,0,123,124,125,0,0,0,0,0,0,0,0,0,0,0,0,
0,0,0,0,0,0,0,0,0,0,0,0,0,0,0,0,0,0,0,0,0,0,0,0,0,0,0,0,0,0,
0,0,0,0,0,0,0,0,0,0,0,0,0,0,0,0,0,0,0,0,0,0,0,0,0,0,0,0,0,0,
0,0,0,0,0,0,0,0,0,0,0,0,0,0,0,0,0,0,0,0,0,0,0,0,0,0,0,0,0,0,
0,0,0,0,0,0,0,0,0,0,0,0,0,0,0,0,0,0,0,0,0,110,81,82,83,110,0,0,0,0,
0,0,0,0,0,0,0,0,0,0,0,0,0,0,0,0,0,0,0,0,0,126,97,98,99,126,0,0,0,0
</data>
 </layer>
 <layer id="2" name="upperLevel" width="30" height="20">
  <data encoding="csv">
0,0,0,0,0,0,0,0,0,0,0,0,0,0,0,0,0,0,0,0,0,1217,1218,1219,0,0,0,0,0,0,
0,0,0,0,0,0,0,0,0,0,0,0,0,0,0,0,0,0,0,0,0,1233,1234,1235,0,0,0,0,0,0,
0,0,0,0,0,0,0,0,0,0,0,0,0,0,0,0,0,0,0,0,0,0,0,0,0,0,0,0,0,0,
0,0,0,0,0,0,0,0,0,0,0,0,0,0,0,0,0,0,0,0,0,0,0,0,0,0,0,0,0,0,
0,0,0,0,0,0,0,0,0,0,0,0,0,0,0,0,0,0,0,0,0,0,0,0,0,0,0,0,0,0,
0,0,0,0,0,0,0,0,0,0,0,0,0,0,0,0,0,0,0,0,0,0,0,0,0,0,0,0,0,0,
0,0,0,1308,1309,1310,0,0,0,0,0,0,0,0,0,0,0,0,0,0,0,0,0,0,0,0,0,0,0,0,
0,0,0,1324,1325,1326,0,0,0,0,0,0,0,0,0,0,0,0,0,0,0,0,0,0,0,0,0,0,0,0,
0,0,0,1340,1341,1342,0,0,0,0,0,0,0,0,0,0,0,0,0,0,0,0,0,0,0,0,0,0,0,0,
0,0,0,0,0,0,0,0,0,0,0,0,0,0,0,0,0,0,0,0,0,1174,0,0,0,0,0,0,0,0,
0,0,0,0,0,0,0,0,0,0,0,0,0,0,1260,0,0,0,0,0,0,1190,0,0,0,0,0,0,0,0,
0,0,0,0,0,0,0,0,0,0,0,0,0,0,1276,0,0,1278,0,0,0,0,0,0,0,0,0,0,0,0,
0,0,0,0,0,0,0,0,0,1174,0,0,0,0,1292,1320,1260,1294,0,0,0,0,0,0,0,0,0,0,0,0,
0,0,0,0,0,0,0,0,0,1190,0,0,0,0,1278,1336,1276,0,0,0,0,0,0,0,0,0,0,0,0,0,
0,0,0,0,0,0,0,0,0,0,0,0,0,0,1294,0,1292,0,0,0,0,0,0,0,0,0,0,0,0,0,
0,0,0,0,0,0,0,0,0,0,0,0,0,0,0,0,0,0,0,0,0,0,0,0,0,0,0,0,0,0,
0,0,0,0,0,0,0,0,0,0,0,0,0,0,0,0,0,0,0,0,0,0,0,0,0,0,0,0,0,0,
0,0,0,0,0,0,0,0,0,0,0,0,0,0,0,0,0,0,0,0,0,1183,0,0,0,1183,0,0,0,0,
0,0,0,0,0,0,0,0,0,0,0,0,0,0,0,0,0,0,0,0,1225,1199,1249,1250,1251,1199,1225,0,0,0,
0,0,0,0,0,0,0,0,0,0,0,0,0,0,0,0,0,0,0,0,1241,1215,1265,1266,1267,1215,1241,0,0,0
</data>
 </layer>
 <objectgroup id="4" name="collision">
  <object id="1" type="WALL" x="95.4291" y="209.603" width="96.2812" height="68.1637"/>
  <object id="2" type="WALL" x="288.844" y="401.314" width="30.6736" height="46.0105"/>
  <object id="3" type="WALL" x="449.88" y="368.084" width="28.9696" height="44.3064"/>
  <object id="4" type="WALL" x="673.116" y="307.589" width="29.8216" height="43.4543"/>
  <object id="5" type="WALL" x="672.264" y="597.284" width="29.8216" height="38.3421"/>
  <object id="6" type="WALL" x="800.071" y="604.1" width="32.3777" height="32.3777"/>
  <object id="9" type="WALL" x="674.332" y="2.06773" width="92.873" height="57.9391"/>
  <object id="10" type="WALL" x="546.161" y="381.717" width="28.1175" height="28.9696"/>
  <object id="11" type="WALL" x="513.784" y="441.36" width="28.9696" height="33.2298"/>
  <object id="12" type="WALL" x="449.028" y="448.176" width="28.9696" height="26.4134"/>
 </objectgroup>
 <objectgroup id="5" name="gameplay">
  <object id="13" name="entrance_from_level1" type="PLAYER_SPAWN" x="736.168" y="564.906" width="29.8216" height="26.4134"/>
  <object id="14" name="tp_to_level1" type="MAP_TRANSITION" x="736.168" y="612.621" width="28.1175" height="24.7093">
   <properties>
    <property name="targetMap" value="level1"/>
    <property name="targetSpawn" value="entrance_from_level2"/>
   </properties>
  </object>
 </objectgroup>
</map>
