<?xml version="1.0" encoding="UTF-8"?>
<map version="1.10" tiledversion="1.12.1" orientation="orthogonal" renderorder="left-up" width="30" height="20" tilewidth="32" tileheight="32" infinite="0" nextlayerid="10" nextobjectid="35">
 <tileset firstgid="1" name="tile" tilewidth="32" tileheight="32" tilecount="64" columns="8">
  <image source="TX Tileset Grass.png" width="256" height="256"/>
 </tileset>
 <tileset firstgid="65" name="TX Plant" tilewidth="32" tileheight="32" tilecount="256" columns="16">
  <image source="../../../../../../assets/Pixel Art Top Down - Basic v1.2.3/Texture/TX Plant.png" width="512" height="512"/>
 </tileset>
 <tileset firstgid="321" name="TX Player" tilewidth="32" tileheight="32" tilecount="16" columns="4">
  <image source="../../../../../../assets/Pixel Art Top Down - Basic v1.2.3/Texture/TX Player.png" width="128" height="128"/>
 </tileset>
 <tileset firstgid="337" name="TX Props" tilewidth="32" tileheight="32" tilecount="256" columns="16">
  <image source="../../../../../../assets/Pixel Art Top Down - Basic v1.2.3/Texture/TX Props.png" width="512" height="512"/>
 </tileset>
 <tileset firstgid="593" name="TX Shadow Plant" tilewidth="32" tileheight="32" tilecount="256" columns="16">
  <image source="../../../../../../assets/Pixel Art Top Down - Basic v1.2.3/Texture/TX Shadow Plant.png" width="512" height="512"/>
 </tileset>
 <tileset firstgid="849" name="TX Shadow" tilewidth="32" tileheight="32" tilecount="256" columns="16">
  <image source="../../../../../../assets/Pixel Art Top Down - Basic v1.2.3/Texture/TX Shadow.png" width="512" height="512"/>
 </tileset>
 <tileset firstgid="1105" name="TX Struct" tilewidth="32" tileheight="32" tilecount="256" columns="16">
  <image source="../../../../../../assets/Pixel Art Top Down - Basic v1.2.3/Texture/TX Struct.png" width="512" height="512"/>
 </tileset>
 <tileset firstgid="1361" name="TX Tileset Grass" tilewidth="32" tileheight="32" tilecount="64" columns="8">
  <image source="../../../../../../assets/Pixel Art Top Down - Basic v1.2.3/Texture/TX Tileset Grass.png" width="256" height="256"/>
 </tileset>
 <tileset firstgid="1425" name="TX Tileset Stone Ground" tilewidth="32" tileheight="32" tilecount="64" columns="8">
  <image source="../../../../../../assets/Pixel Art Top Down - Basic v1.2.3/Texture/TX Tileset Stone Ground.png" width="256" height="256"/>
 </tileset>
 <tileset firstgid="1489" name="TX Tileset Wall" tilewidth="32" tileheight="32" tilecount="256" columns="16">
  <image source="../../../../../../assets/Pixel Art Top Down - Basic v1.2.3/Texture/TX Tileset Wall.png" width="512" height="512"/>
 </tileset>
 <layer id="2" name="background" width="30" height="20">
  <data encoding="csv">
11,11,1,2,3,4,4,34,1,2,3,4,5,6,7,8,1,2,3,4,5,6,1,2,3,4,5,6,7,8,
11,11,9,10,11,12,12,34,1,2,3,4,1,2,3,4,1,2,3,4,1,2,3,4,1,2,3,4,4,4,
11,11,17,18,19,20,20,34,9,10,11,12,9,10,11,12,9,10,11,12,9,10,11,12,9,10,11,12,12,12,
18,18,25,26,27,28,34,34,17,18,19,20,17,18,19,20,17,18,19,20,17,18,19,20,17,18,19,20,20,20,
18,18,17,18,19,20,34,11,25,26,27,28,25,26,27,28,25,26,27,28,25,26,27,28,25,26,27,28,28,28,
18,18,25,26,27,28,34,1,2,3,4,1,1,2,3,4,1,1386,22,22,22,2,3,4,1,2,3,4,4,4,
18,18,1,2,3,4,34,1393,1393,1393,1393,1393,1393,1393,1393,1393,1393,1393,22,22,22,10,11,12,9,10,11,12,12,12,
18,18,9,10,11,12,34,1393,1393,1393,1393,1393,1393,1393,1393,1393,1393,1393,22,22,22,18,19,20,17,18,19,20,20,20,
28,28,17,18,19,20,34,25,26,27,28,25,25,26,27,28,25,26,27,28,25,26,27,28,25,26,27,28,28,28,
27,26,25,26,27,28,50,50,1,1,1,1,1,1,1,1,1,1,25,26,27,28,25,26,27,28,25,26,27,28,
11,11,11,1,2,3,4,50,9,9,9,9,9,9,9,9,9,1,25,25,25,25,25,25,25,25,25,26,27,28,
11,11,11,9,10,11,12,50,17,17,17,17,17,17,17,17,17,1,33,33,33,33,33,33,3,4,5,6,7,8,
11,11,11,17,18,19,20,57,25,25,25,25,25,25,25,25,25,1,33,1,2,3,4,5,6,7,8,3,3,3,
11,11,11,25,26,27,28,59,1,1,1,1,1,1,1,1,1,1,33,9,10,11,12,13,14,15,16,11,11,11,
11,11,11,11,11,18,18,45,9,9,9,9,9,9,9,9,9,9,33,17,18,19,20,21,22,23,24,19,19,19,
11,11,58,11,11,18,18,45,17,17,17,17,17,17,17,17,17,17,33,25,26,27,28,29,30,31,32,27,27,27,
11,11,11,1,2,3,4,33,25,25,25,25,25,25,25,25,25,25,33,55,5,6,3,5,6,3,3,3,3,3,
11,11,11,9,10,11,12,33,33,33,33,33,33,33,33,33,33,33,33,63,13,14,11,13,14,11,11,11,11,11,
11,11,11,17,18,19,20,11,12,13,11,12,13,11,11,12,13,11,12,13,21,22,19,21,22,19,19,19,19,19,
11,11,11,25,26,27,28,19,20,21,19,20,21,19,19,20,21,19,20,21,29,30,27,29,30,27,27,27,27,27
</data>
 </layer>
 <layer id="6" name="upper" width="30" height="20">
  <data encoding="csv">
0,0,0,0,0,0,0,0,0,0,0,0,0,0,0,0,0,0,0,0,0,0,0,0,0,0,0,0,0,0,
0,0,0,0,0,0,0,0,0,0,0,0,0,0,0,0,0,0,0,0,0,0,0,0,0,0,0,0,0,0,
0,0,0,0,0,0,0,0,0,0,0,0,0,0,0,0,0,0,0,0,0,0,0,0,0,0,0,0,0,0,
0,0,0,0,0,0,0,0,0,0,0,0,0,0,1569,1570,1571,1572,1573,1574,0,0,0,0,0,0,0,0,0,0,
0,0,0,0,0,0,0,1586,1587,1588,1589,1586,1587,1588,1589,1586,1587,1588,1589,1590,0,0,0,0,0,0,0,0,0,0,
0,0,0,0,0,0,0,1602,1603,1604,1605,1602,1603,1604,1605,1602,1603,1604,1250,1251,1252,1253,0,0,0,0,0,0,0,0,
0,0,0,0,0,0,0,1569,1570,1571,1572,1573,1574,1570,1571,1572,1573,1574,1266,1267,1268,1269,0,0,0,0,0,0,0,0,
0,0,0,0,0,0,0,1586,1587,1588,1589,1589,1586,1587,1588,1586,1587,1588,1282,1283,1284,1285,0,0,0,0,0,0,0,0,
0,0,0,0,0,0,0,1602,1603,1604,1605,1605,1602,1603,1604,1602,1603,1604,1605,1606,0,0,0,0,0,0,0,0,0,0,
65,66,67,68,69,0,0,1617,1618,1619,1620,1621,1622,1618,1619,1620,1621,1622,1621,1622,0,0,0,0,0,0,0,0,0,0,
81,82,83,84,85,0,0,0,0,0,0,0,0,0,0,0,0,0,0,0,0,0,0,0,0,0,0,0,0,0,
97,98,99,100,101,0,0,0,0,0,0,0,0,0,0,0,0,0,0,0,0,0,0,0,0,0,0,0,0,0,
113,114,115,116,117,0,397,0,0,0,0,164,164,164,164,0,0,0,0,349,0,0,0,0,0,0,0,0,0,0,
129,130,131,132,133,0,413,0,0,0,0,164,0,0,164,0,0,0,0,365,0,0,0,0,0,0,0,0,0,0,
0,0,0,0,0,0,397,0,0,0,0,164,0,0,164,0,0,0,0,349,65,66,67,68,69,0,0,0,0,0,
0,0,0,0,0,0,413,0,0,0,0,164,164,164,164,0,0,0,0,365,81,82,83,84,85,0,0,0,0,0,
0,0,0,0,0,0,0,0,0,0,0,0,0,0,0,0,0,0,0,0,97,98,99,100,101,0,0,0,0,0,
0,0,0,0,0,0,0,0,0,0,0,0,0,0,0,0,0,0,0,0,113,114,115,116,117,0,0,0,0,0,
0,0,0,0,0,0,0,0,0,0,0,0,0,0,0,0,0,0,0,0,129,130,131,132,133,0,0,0,0,0,
0,0,0,0,0,0,0,0,0,0,0,0,0,0,0,0,0,0,0,0,0,0,0,0,0,0,0,0,0,0
</data>
 </layer>
 <layer id="7" name="evenUpper" width="30" height="20">
  <data encoding="csv">
0,0,0,0,0,0,0,0,0,0,0,0,0,0,0,0,0,0,0,0,0,0,0,0,1515,1515,0,0,0,0,
0,0,0,0,0,0,0,0,0,0,0,0,0,0,0,0,0,0,0,0,0,0,0,0,1531,1531,0,0,0,0,
0,0,0,0,0,0,0,0,0,0,0,0,0,0,0,0,0,0,0,0,0,0,0,0,1547,1547,0,0,0,0,
0,0,0,0,0,0,0,0,0,0,0,0,0,0,0,0,0,0,0,0,0,0,1449,1450,1451,1444,0,0,0,0,
0,0,0,0,0,0,0,0,0,0,0,0,0,0,0,0,0,0,0,0,0,0,1428,0,0,0,0,0,0,0,
0,0,0,0,0,0,0,0,0,0,0,0,0,0,0,0,0,0,0,0,0,0,1436,0,0,0,0,0,0,0,
0,0,0,0,0,0,0,0,0,0,0,0,0,0,0,0,0,0,0,0,0,0,1444,328,0,0,0,0,0,0,
0,0,0,0,0,0,0,0,0,0,0,0,0,0,0,0,0,0,0,0,0,0,1428,0,0,0,0,0,0,0,
0,0,0,0,0,0,0,0,0,0,0,0,0,0,0,0,0,0,0,0,0,0,1436,0,0,0,0,0,0,0,
0,0,0,0,0,0,0,0,0,0,0,0,0,0,0,0,0,0,0,0,0,0,1444,0,0,0,0,0,0,0,
0,0,0,0,0,0,0,0,0,0,0,0,74,75,76,0,0,0,0,0,0,0,1452,0,0,0,0,0,0,0,
0,0,0,0,0,0,0,0,0,0,0,0,90,91,92,0,0,0,0,0,0,0,0,0,0,0,0,0,0,0,
0,0,0,0,0,0,0,0,0,0,0,0,106,107,108,0,0,0,0,0,0,0,0,0,0,0,0,0,0,0,
0,0,0,0,0,0,0,0,0,0,0,0,122,123,124,0,0,0,0,0,0,0,0,0,0,0,0,0,0,0,
0,0,0,0,0,0,0,0,0,0,0,0,138,139,140,0,0,0,0,0,0,0,0,0,0,0,0,0,0,0,
0,0,0,0,0,0,0,0,0,0,0,0,0,0,0,0,0,0,0,0,0,0,0,0,0,0,0,0,0,0,
0,0,0,0,0,0,0,0,0,0,0,0,0,0,0,0,0,0,0,0,0,0,0,0,0,0,0,0,0,0,
0,0,0,0,0,0,0,0,0,0,0,0,0,0,0,0,0,0,0,0,0,0,0,0,0,0,0,0,0,0,
0,0,0,0,0,0,0,0,0,0,0,0,0,0,0,0,0,0,0,0,0,0,0,0,0,0,0,0,0,0,
0,0,0,0,0,0,0,0,0,0,0,0,0,0,0,0,0,0,0,0,0,0,0,0,0,0,0,0,0,0
</data>
 </layer>
 <layer id="8" name="3upper" width="30" height="20">
  <data encoding="csv">
0,0,0,0,0,0,0,0,0,0,0,0,0,0,0,0,0,0,0,0,0,0,0,0,385,386,387,0,0,0,
0,0,0,0,0,0,0,0,0,0,0,0,0,0,0,0,0,0,0,0,341,342,341,342,401,402,403,343,343,0,
0,0,0,0,0,0,0,0,0,0,0,0,0,0,0,0,0,0,0,0,357,358,357,358,359,357,358,359,359,0,
0,0,0,0,0,0,0,0,0,0,0,0,0,0,0,0,0,0,0,0,0,0,0,0,0,0,0,0,0,0,
0,0,0,0,0,0,0,0,0,0,0,0,0,0,0,0,0,0,0,0,0,0,0,0,0,0,0,0,0,0,
0,0,0,0,0,0,0,0,0,0,0,0,0,0,0,0,0,0,0,0,0,0,0,323,0,0,0,0,0,0,
0,0,0,0,0,0,0,0,0,0,0,0,0,0,0,0,0,0,0,0,0,0,0,327,0,0,0,0,0,0,
0,0,0,0,0,0,0,0,0,0,0,0,0,0,0,0,0,0,0,0,0,0,0,0,0,0,0,0,0,0,
0,0,0,0,0,0,0,0,0,0,0,0,0,0,0,0,0,0,0,0,0,0,0,0,0,0,0,0,0,0,
0,0,0,0,0,0,0,0,0,0,0,0,0,0,0,0,0,0,0,0,0,0,0,0,0,0,0,0,0,0,
0,0,0,0,0,0,0,0,0,0,0,0,0,0,0,0,0,0,0,0,0,0,0,0,0,0,0,0,0,0,
0,0,0,0,0,0,0,0,0,0,0,0,0,0,0,0,0,0,0,0,0,0,0,0,0,0,0,0,0,0,
0,0,0,0,0,0,0,0,0,0,0,0,0,0,0,0,0,0,0,0,0,0,0,0,0,0,0,0,0,0,
0,630,631,632,0,0,0,0,0,0,0,0,630,631,632,0,0,0,0,0,0,0,0,0,0,0,0,0,0,0,
0,646,647,648,0,0,0,0,0,0,0,0,646,647,648,0,0,0,0,0,0,0,0,0,0,0,0,0,0,0,
0,662,663,664,0,0,0,0,0,0,0,0,662,663,664,0,0,0,0,0,0,0,0,0,0,0,0,0,0,0,
0,0,0,0,0,0,0,0,0,0,0,0,0,0,0,0,0,0,0,0,0,0,0,0,0,0,0,0,0,0,
0,0,0,0,0,0,0,0,0,0,0,0,0,0,0,0,0,0,0,0,0,630,631,632,0,0,0,0,0,0,
0,0,0,0,0,0,0,0,0,0,0,0,0,0,0,0,0,0,0,0,0,646,647,648,0,0,0,0,0,0,
0,0,0,0,0,0,0,0,0,0,0,0,0,0,0,0,0,0,0,0,0,662,663,664,0,0,0,0,0,0
</data>
 </layer>
 <objectgroup id="5" name="Gameplay">
  <object id="2" name="player_spawn" type="PLAYER_SPAWN" x="240.667" y="69.333"/>
  <object id="13" name="tp_to_level2" type="MAP_TRANSITION" x="793" y="31" width="39" height="42">
   <properties>
    <property name="targetMap" value="level2"/>
    <property name="targetSpawn" value="entrance_from_level1"/>
   </properties>
  </object>
  <object id="14" name="entrance_from_level2" type="PLAYER_SPAWN" x="795" y="95" width="37" height="34"/>
  <object id="15" type="NPC" x="738" y="177" width="26" height="45">
   <properties>
    <property name="dialogue" value="Hello, junk!"/>
    <property name="name" value="mystreious_fridge"/>
   </properties>
  </object>
  <object id="17" type="WALL" x="674" y="161" width="9" height="93"/>
 </objectgroup>
 <objectgroup id="9" name="collision">
  <object id="3" type="WALL" x="719" y="589"/>
  <object id="6" type="WALL" x="607" y="383" width="32" height="126"/>
  <object id="7" type="WALL" x="193" y="384" width="31" height="125"/>
  <object id="8" type="WALL" x="65" y="420" width="31" height="28"/>
  <object id="12" type="WALL" x="416" y="449" width="33" height="34"/>
  <object id="23" type="WALL" x="224" y="158" width="350" height="32"/>
  <object id="24" type="WALL" x="226" y="259" width="360" height="26"/>
  <object id="27" type="WALL" x="660" y="207" width="10" height="44"/>
  <object id="28" type="WALL" x="648" y="213" width="10" height="38"/>
  <object id="29" type="WALL" x="632" y="221" width="12" height="30"/>
  <object id="30" type="WALL" x="615" y="231" width="14" height="20"/>
  <object id="31" type="WALL" x="602" y="236" width="10" height="17"/>
  <object id="32" type="WALL" x="651" y="153" width="19" height="13"/>
  <object id="33" type="WALL" x="623" y="160" width="24" height="12"/>
  <object id="34" type="WALL" x="600" y="169" width="20" height="15"/>
 </objectgroup>
</map>
