<?xml version="1.0" encoding="UTF-8"?>
<map version="1.10" tiledversion="1.12.1" orientation="orthogonal" renderorder="left-up" width="30" height="20" tilewidth="32" tileheight="32" infinite="0" nextlayerid="5" nextobjectid="14">
 <tileset firstgid="1" name="Walls and floors" tilewidth="32" tileheight="32" tilecount="84" columns="12">
  <image source="Walls and floors.png" width="397" height="232"/>
 </tileset>
 <tileset firstgid="85" name="Interior without swadows" tilewidth="32" tileheight="32" tilecount="364" columns="14">
  <image source="Interior without swadows.png" width="448" height="853"/>
 </tileset>
 <tileset firstgid="449" name="TX Props with Shadow" tilewidth="32" tileheight="32" tilecount="256" columns="16">
  <image source="TX Props with Shadow.png" width="512" height="512"/>
 </tileset>
 <layer id="1" name="floor" width="30" height="20">
  <data encoding="csv">
37,37,37,37,37,37,37,37,37,37,37,37,37,37,37,37,37,37,37,37,37,37,37,37,37,37,37,37,37,37,
37,1,2,1,2,1,2,1,2,1,1,1,1,1,1,1,1,1,1,1,1,1,1,1,1,1,1,1,2,37,
37,2,14,13,14,13,14,13,14,13,13,13,13,13,13,13,13,13,13,13,13,13,13,13,13,13,13,1,2,37,
37,2,26,25,26,25,26,25,26,25,25,25,25,25,25,25,25,25,25,25,25,25,25,25,1,2,2,1,2,37,
37,2,1,2,1,2,2,52,52,52,52,52,52,52,52,52,52,52,52,52,52,52,52,52,13,14,14,1,2,37,
37,13,13,14,13,14,2,52,52,52,52,52,52,52,52,52,52,52,52,52,52,52,52,52,25,26,26,1,2,37,
37,1,2,2,25,26,14,52,52,52,52,52,52,52,52,52,52,52,52,52,52,52,52,52,13,25,26,1,2,37,
37,13,14,14,26,25,26,52,52,52,52,52,52,52,52,52,52,52,52,52,52,52,52,52,25,25,26,1,2,37,
37,25,26,26,1,1,2,52,52,52,52,52,52,52,52,52,52,52,52,52,52,52,52,52,25,26,2,1,2,37,
37,13,13,14,13,13,14,52,52,52,52,52,52,52,52,52,52,52,52,52,52,52,52,52,25,26,14,1,2,37,
37,25,25,26,25,25,26,52,52,52,52,52,52,52,52,52,52,52,52,52,52,52,52,52,25,26,26,1,2,37,
37,1,2,1,2,1,2,52,52,52,52,52,52,52,52,52,52,52,52,52,52,52,52,52,1,25,26,1,2,37,
37,13,14,13,14,13,14,52,52,52,52,52,52,52,52,52,52,52,52,52,52,52,52,52,13,25,26,1,2,37,
37,25,26,25,26,25,26,52,52,52,52,52,52,52,52,52,52,52,52,52,52,52,52,52,25,25,26,2,2,37,
37,1,2,1,2,1,2,52,52,52,52,52,52,52,52,52,52,52,52,52,52,52,52,52,25,26,1,2,14,37,
37,13,14,13,14,13,14,52,52,52,52,52,52,52,52,52,52,52,52,52,52,52,52,52,25,26,1,2,26,37,
37,25,26,25,26,25,26,52,52,52,52,52,52,52,52,52,52,52,52,52,52,52,52,52,25,26,1,1,2,37,
37,1,2,1,2,1,2,1,1,1,1,1,1,1,1,1,1,1,1,1,1,1,1,1,2,2,1,13,14,37,
37,13,14,13,14,13,14,13,13,13,13,13,13,13,13,13,13,13,13,13,13,13,13,13,14,14,13,25,26,37,
37,25,26,25,26,25,26,25,25,25,25,25,25,25,25,25,25,25,25,25,25,25,25,25,26,26,25,25,26,37
</data>
 </layer>
 <layer id="2" name="interior" width="30" height="20">
  <data encoding="csv">
0,0,0,0,0,0,0,0,0,0,0,0,0,0,0,0,0,0,0,0,0,0,0,0,0,0,0,0,0,0,
0,0,0,0,0,0,0,0,0,0,0,0,0,0,0,0,0,0,0,0,0,0,0,0,0,0,0,0,0,0,
0,0,0,0,0,0,0,0,0,0,0,0,0,0,0,0,0,0,0,0,0,0,0,0,0,0,0,0,0,0,
0,0,0,0,0,0,0,0,0,0,148,0,0,0,0,0,0,0,0,0,0,0,0,0,0,0,0,0,0,0,
0,0,0,0,0,0,0,152,153,154,162,113,114,115,116,113,114,115,116,113,114,115,116,0,0,0,0,0,0,0,
0,0,0,0,0,0,0,166,167,168,176,0,0,0,0,0,0,0,0,0,0,0,451,452,453,0,0,0,0,0,
0,0,0,0,0,0,0,0,0,0,0,0,0,0,0,0,0,0,0,0,0,0,467,468,469,0,0,0,0,0,
0,0,0,0,0,0,0,598,0,0,0,0,0,0,0,0,0,0,0,0,0,0,0,598,0,0,0,0,0,0,
0,0,0,0,0,0,0,566,0,0,0,0,0,0,0,0,0,0,0,0,0,0,0,566,0,0,0,0,0,0,
0,0,0,0,0,0,0,598,0,0,0,0,0,0,0,0,0,0,0,0,0,0,0,598,0,0,0,0,0,0,
0,0,0,0,0,0,0,0,0,0,0,0,0,0,0,0,0,0,0,0,0,0,0,0,0,0,0,0,0,0,
0,0,0,0,0,0,0,0,0,0,0,0,0,0,0,0,0,0,0,0,0,0,0,0,0,0,0,0,0,0,
0,0,0,0,0,0,0,0,0,0,0,0,0,0,0,0,0,0,0,0,0,0,0,0,0,0,0,0,0,0,
0,0,0,0,0,0,0,0,0,0,0,0,0,0,0,0,0,0,0,0,0,0,0,0,0,0,0,0,0,0,
0,0,0,0,0,0,0,0,0,0,0,0,0,0,0,0,0,0,0,0,0,0,0,0,0,0,0,0,0,0,
0,0,0,0,0,0,0,0,0,0,0,0,0,0,481,482,483,0,0,0,0,0,0,0,0,0,0,0,0,0,
0,0,0,0,0,0,0,0,0,0,0,0,0,0,497,498,499,0,0,0,0,0,0,0,0,0,0,0,0,0,
0,0,0,0,0,0,0,0,0,0,0,0,0,0,513,514,515,0,0,0,0,0,0,0,0,0,0,0,0,0,
0,0,0,0,0,0,0,0,0,0,0,0,0,0,0,0,0,0,0,0,0,0,0,0,0,0,0,0,0,0,
0,0,0,0,0,0,0,0,0,0,0,0,0,0,0,0,0,0,0,0,0,0,0,0,0,0,0,0,0,0
</data>
 </layer>
 <objectgroup id="3" name="gameplay">
  <object id="1" name="entranceFromCity" type="PLAYER_SPAWN" x="416" y="330" width="145" height="47"/>
  <object id="4" name="TransitionToCity" type="MAP_TRANSITION" x="464" y="516" width="68" height="57">
   <properties>
    <property name="targetMap" value="cityCenter"/>
    <property name="targetSpawn" value="entranceFromMariaHouse"/>
   </properties>
  </object>
  <object id="13" type="REST_POINT" x="224" y="124" width="73" height="52">
   <properties>
    <property name="dialogue" value="After a long journey...|You'r game finally saved! Congratulations."/>
    <property name="name" value="Bed"/>
   </properties>
  </object>
 </objectgroup>
 <objectgroup id="4" name="collision">
  <object id="5" type="WALL" x="224" y="65" width="547" height="59"/>
  <object id="6" type="WALL" x="764" y="116" width="76" height="453"/>
  <object id="7" type="WALL" x="218" y="542" width="244" height="32"/>
  <object id="8" type="WALL" x="531" y="538" width="236" height="34"/>
  <object id="9" type="WALL" x="182" y="108" width="39" height="431"/>
  <object id="10" type="WALL" x="224" y="220" width="34" height="98"/>
  <object id="11" type="WALL" x="319" y="122" width="443" height="39"/>
  <object id="12" type="WALL" x="735" y="191" width="27" height="130"/>
 </objectgroup>
</map>
